packages/Snapp/src/EyeHideIcon/index.svg

<svg viewBox="0 0 24 24" xmlns="http://www.w3.org/2000/svg" fill="currentColor" focusable="false">
  <path d="M2.293 2.293a.999.999 0 011.414 0L22.04 20.626a.999.999 0 11-1.414 1.414l-4.083-4.083A10.176 10.176 0 0112 19c-3.765 0-6.837-1.774-9.132-5.272a3.02 3.02 0 01.075-3.4c1.018-1.413 1.934-2.45 2.789-3.182L2.293 3.707a.999.999 0 010-1.414zm4.861 6.274c-.755.616-1.618 1.584-2.589 2.931a.993.993 0 00-.024 1.133C6.469 15.57 8.909 17 12 17a8.385 8.385 0 003.037-.549l-1.653-1.653a3.505 3.505 0 01-1.884.565c-1.93 0-3.5-1.57-3.5-3.5 0-.675.209-1.323.567-1.882zM12 5c3.783 0 6.867 1.791 9.165 5.324.646.993.646 2.277.002 3.27-.639.983-.866 1.285-.982 1.425a1.002 1.002 0 01-1.407.142 1 1 0 01-.141-1.407c.06-.073.263-.342.852-1.249.215-.332.215-.76-.001-1.091C17.556 8.444 15.106 7 12 7c-.297 0-.588.013-.875.04a.999.999 0 11-.189-1.99C11.284 5.017 11.638 5 12 5zm-1.942 6.473a1.502 1.502 0 00-.058.39c0 .827.673 1.5 1.5 1.5.133 0 .26-.03.385-.063z" fill="none"/>
</svg>

<?xml version="1.0" encoding="UTF-8"?>
<svg width="24px" height="24px" viewBox="0 0 24 24" version="1.1" xmlns="http://www.w3.org/2000/svg" xmlns:xlink="http://www.w3.org/1999/xlink">
    <title>Icons/24/EyeHide</title>
    <g id="Icons/24/EyeHide" stroke="none" stroke-width="1" fill="none" fill-rule="evenodd">
        <rect id="Container" fill-opacity="0" fill="#D8D8D8" fill-rule="nonzero" x="0" y="0" width="24" height="24"></rect>
        <path d="M2.293,2.293 C2.684,1.902 3.316,1.902 3.707,2.293 L3.707,2.293 L22.04,20.626 C22.431,21.017 22.431,21.649 22.04,22.04 C21.845,22.235 21.589,22.333 21.333,22.333 C21.077,22.333 20.821,22.235 20.626,22.04 L20.626,22.04 L16.543,17.957 C15.164,18.636 13.644,19 12,19 C8.235,19 5.163,17.226 2.868,13.728 C2.191,12.694 2.222,11.328 2.943,10.328 C3.961,8.915 4.877,7.878 5.732,7.146 L5.732,7.146 L2.293,3.707 C1.902,3.316 1.902,2.684 2.293,2.293 Z M7.154,8.567 C6.399,9.183 5.536,10.151 4.565,11.498 C4.321,11.836 4.312,12.281 4.541,12.631 C6.469,15.57 8.909,17 12,17 C13.085,17 14.101,16.812 15.037,16.451 L15.037,16.451 L13.384,14.798 C12.824,15.157 12.17,15.363 11.5,15.363 C9.57,15.363 8,13.793 8,11.863 C8,11.188 8.209,10.54 8.567,9.981 L8.567,9.981 Z M12,5 C15.783,5 18.867,6.791 21.165,10.324 C21.811,11.317 21.811,12.601 21.167,13.594 C20.528,14.577 20.301,14.879 20.185,15.019 C19.988,15.262 19.7,15.387 19.411,15.387 C19.188,15.387 18.964,15.312 18.778,15.161 C18.351,14.811 18.288,14.182 18.637,13.754 C18.697,13.681 18.9,13.412 19.489,12.505 C19.704,12.173 19.704,11.745 19.488,11.414 C17.556,8.444 15.106,7 12,7 C11.703,7 11.412,7.013 11.125,7.04 C10.568,7.092 10.087,6.688 10.035,6.14 C9.982,5.59 10.386,5.102 10.936,5.05 C11.284,5.017 11.638,5 12,5 Z M10.058,11.473 C10.024,11.6 10,11.729 10,11.863 C10,12.69 10.673,13.363 11.5,13.363 C11.633,13.363 11.76,13.333 11.885,13.3 L11.885,13.3 Z" id="Combined-Shape" fill="#404040"></path>
    </g>
</svg>
